X:3
T:One-Horned Cow, The
S:Liam Walsh
E:12
R:reel
I:speed 350
M:C|
K:D
G|FA{c}AF GFED|FA {B}(3AGA defA|FA{c}AF GFED|defd efdA|FA{c}AF GFED|FA {B}(3AGA defd|edef {a}(3gfg bg|afdf ed d||
f|afdf {a}(3gfg bg|afdf (3efe Bf|afdf {a}(3gfg bg|afdf (3efe df|afdf {a}(3gfg bg|afdf eB {c}(3BAB|defg afbf|afdf ecd||
<end>
<start>
